X: 707
T: Yosis (Gm)
M: 2/4
L: 1/8
K: Gm
|: "Gm"DB AG | "D7"^FD FG \
| "D7"A2 A2 | A2 A2 \
| "Gm"DB AG |1 "D7"^FD FG |    A4  | d4     :|
            |2 "Cm"^FC DE | "D"D4- | DD =E^F \
|: "Gm"G4 | B4 \
|      zB BB | Bc/B/ AG \
|  "Eb"G4 | B4 \
|      zB BB
| Bc/B/ AG \
|  "Cm"A4 | c4 \
|      zc cc | cc Bc \
|1 "D7"d2 c2 | B2 c2 | "Gm"d4- | d2 z2 \
:|2"D7"d2 c2 | B2 A2 | "Gm"G4- | G2 z2 |]
